X:1
T:Title
%%score { ( 1 3 ) | ( 2 4 ) }
L:1/8
M:4/4
K:Eb
V:1 treble nm="Grand Piano"
V:3 treble 
V:2 bass 
V:4 bass 
V:1
 z4 z2[Q:1/4=100] E>F | G>G G>A G2 G>[FA] |[M:3/4] [GB]>[GB] [GB]>[Ac] [GB]2 |[M:1/4] [GB]>[GB] | %4
[M:4/4] c>c c>c e2 c2 | [GB]6 E>F |[M:3/4] G>G G>G G2 |[M:1/4] G>[FA] | %8
[M:4/4] [GB]>[GB] [GB]>[Ac] [GB]2 [GB]>G | F>F F>B d2 c2 |[M:3/4] [B,DB]6 |[M:1/4] G>A | %12
[M:4/4] B6 z2 | B6 z2 | G6 z2 | G6[K:bass][K:treble] z2 | [DF]>[DF] [DF]>[EG] [FA]2 [EG]>[DF] | %17
 [B,EG]>[B,EG] [B,EG]>[B,FA] [EGB]2 c>c | B6 z2 |[M:3/4] e6 |] %20
V:2
 z4 z2 [E,G,B,]>[E,A,B,] | [E,B,E]>[E,B,E] [E,B,E]>[E,CE] [E,B,E]2 [E,B,E]>[E,B,] | %2
[M:3/4] [E,E]>[E,E] [E,E]>[E,E] [E,E]2 |[M:1/4] [E,E]>[E,E] | %4
[M:4/4][K:treble] [A,EA]>[A,EA] [A,EA]>[A,EA] [A,CA]2 [A,EA]2 | [E,E]6 [E,G,B,]>[E,A,B,] | %6
[M:3/4] [E,B,E]>[E,B,E] [E,B,E]>[E,CE] [E,B,E]2 |[M:1/4] [E,B,E]>[E,B,] | %8
[M:4/4] [E,E]>[E,E] [E,E]>[E,E] [E,E]2 [E,E]>[E,B,E] | %9
 [F,B,D]>[F,B,D] [F,B,D]>[F,B,D] [F,B,F]2 [F,=A,E]2 |[M:3/4] B,,6 |[M:1/4][K:treble] E>F | %12
[M:4/4] G6[K:bass][K:treble] z2 | G6[K:bass] z2 | E6 z2 | [B,E]6 [E,A,B,]>[E,G,B,] | %16
 [B,,B,]>[B,,B,] [B,,B,]>[B,,B,] [B,,B,]2 [B,,B,]>[B,,B,] | E,>E, E,>E, E,2[K:treble] A>A | %18
 G6[K:bass] z2 |[M:3/4] B,2 z2 z2 |] %20
V:3
 x8 | x8 |[M:3/4] x6 |[M:1/4] x2 |[M:4/4] x8 | x8 |[M:3/4] x6 |[M:1/4] x2 |[M:4/4] x8 | x8 | %10
[M:3/4] x6 |[M:1/4] x2 |[M:4/4] z2 E>E E2 c2 | z2 E2 E2 E>F | z2 B,>B, B,2 A2 | %15
 z2[K:bass] E,2 E,2[K:treble] F>E | x8 | x8 | z2 B,>B, B,2 [Ad]2 |[M:3/4] G2 A2 G2 |] %20
V:4
 x8 | x8 |[M:3/4] x6 |[M:1/4] x2 |[M:4/4][K:treble] x8 | x8 |[M:3/4] x6 |[M:1/4] x2 |[M:4/4] x8 | %9
 x8 |[M:3/4] x6 |[M:1/4][K:treble] x2 |[M:4/4] z2[K:bass] E,>E, E,2[K:treble] A2 | %13
 z2[K:bass] E,2 E,2 z z/ E/ | z2 E,>E, E,2 [CE]2 | x8 | x8 | x6[K:treble] x2 | %18
 z2[K:bass] E,>E, E,2 [B,,B,]2 |[M:3/4] E,2- [E,-C]2 [E,B,]2 |] %20

